assets/awssimplestorageservice/original.svg

<svg height="64" viewBox="0 0 64 64" width="64" xmlns="http://www.w3.org/2000/svg"><g fill="none" fill-rule="evenodd"><path d="m0 0h64v64h-64z" fill="#7aa116"/><path d="m36.759 23.948.234-1.817c2.173 1.254 2.849 1.99 3.044 2.293-.324.061-1.205.085-3.278-.476m-17.259-12.948c-10.375 0-17.118-2.512-17.5-4.304v-.185c.349-1.119 6.14-4.511 17.5-4.511 11.34 0 17.132 3.381 17.5 4.505v.111c-.276 1.83-7.039 4.384-17.5 4.384m15.318 12.362c-4.765-1.565-10.906-4.383-13.224-5.474a2.09 2.09 0 0 0 -2.082-1.982 2.097 2.097 0 0 0 -2.094 2.094c0 1.154.94 2.094 2.094 2.094.457 0 .877-.152 1.221-.401 2.399 1.129 8.886 4.105 13.825 5.687l-1.721 13.344c-.254 1.628-4.918 3.276-13.34 3.276-8.425 0-13.092-1.648-13.342-3.249l-3.72-28.937c3.51 2.101 10.314 3.186 17.065 3.186 6.75 0 13.554-1.085 17.065-3.185zm4.182-16.862c0-3.069-8.339-6.5-19.5-6.5s-19.5 3.431-19.5 6.5v.543l4.174 31.99c.701 4.483 10.949 4.967 15.323 4.967 4.372 0 14.616-.484 15.321-4.993l1.683-13.06c1.277.332 2.311.509 3.115.508.99 0 1.657-.252 2.081-.758.35-.416.488-.941.388-1.476-.228-1.221-1.682-2.509-4.715-4.177l-.1-.055 1.73-12.945z" fill="#fff" transform="translate(11 10)"/></g></svg>

<svg xmlns="http://www.w3.org/2000/svg" width="64" height="64" viewBox="0 0 64 64"><title>Icon-Architecture/48/Arch_Amazon-Simple-Storage-Service_48</title><g id="Icon-Architecture/48/Arch_Amazon-Simple-Storage-Service_48" fill="none" fill-rule="evenodd" stroke="none" stroke-width="1"><g id="Icon-Architecture-BG/48/Storage" fill="#7aa116"><path id="Rectangle" d="M0 0h64v64H0z"/></g><g id="Icon-Service/48/Amazon-Simple-Storage-Service_48" fill="#fff" transform="translate(11 10)"><path id="Amazon-Simple-Storage-Service-Icon_48_Squid" d="m36.759 23.948.234-1.817c2.173 1.254 2.849 1.99 3.044 2.293-.324.061-1.205.085-3.278-.476M19.5 11C9.125 11 2.382 8.488 2 6.696v-.185C2.349 5.392 8.14 2 19.5 2 30.84 2 36.632 5.381 37 6.505v.111C36.724 8.446 29.961 11 19.5 11m15.318 12.362c-4.765-1.565-10.906-4.383-13.224-5.474a2.09 2.09 0 0 0-2.082-1.982A2.097 2.097 0 0 0 17.418 18c0 1.154.94 2.094 2.094 2.094.457 0 .877-.152 1.221-.401 2.399 1.129 8.886 4.105 13.825 5.687l-1.721 13.344C32.583 40.352 27.919 42 19.497 42c-8.425 0-13.092-1.648-13.342-3.249L2.435 9.814C5.945 11.915 12.749 13 19.5 13c6.75 0 13.554-1.085 17.065-3.185zM39 6.5C39 3.431 30.661 0 19.5 0S0 3.431 0 6.5v.543l4.174 31.99C4.875 43.516 15.123 44 19.497 44c4.372 0 14.616-.484 15.321-4.993l1.683-13.06c1.277.332 2.311.509 3.115.508.99 0 1.657-.252 2.081-.758.35-.416.488-.941.388-1.476-.228-1.221-1.682-2.509-4.715-4.177l-.1-.055L39 7.044z"/></g></g></svg>
